svgs/chatsen.svg

<svg width="192" height="192" viewBox="0 0 192 192" fill="none" xmlns="http://www.w3.org/2000/svg">
<path d="M164.016 124.811C153.172 147.05 144.279 155.907 123.473 165.353C72.3272 181.57 17.4389 146.641 21.1812 84.892C26.6136 39.1917 70.456 15.0341 110.375 23.7663C128.905 30.4595 132.648 44.1815 130.958 53.7054C128.96 53.1517 127.029 52.7177 125.163 52.3936M164.016 124.811C158.456 117.546 154.466 114.669 145.304 112.336M164.016 124.811C173.988 100.003 173.442 86.6347 161.339 63.79M145.304 112.336C127.757 133.629 104 134 86.0493 113.584C72.3858 93.5084 79.1635 78.0309 84.8018 69.2987M145.304 112.336C146.724 109.369 147.871 106.765 148.787 104.332M84.8018 69.2987C91.4587 58.9889 104.193 48.7509 125.163 52.3936M84.8018 69.2987C91.4816 83.7494 114.56 84.892 120.797 69.2987C125.507 57.1972 125.402 53.5895 125.163 52.3936M161.339 63.79C161.618 73.9652 162.298 79.8506 158.221 90.6104C158.221 90.6104 153.023 86.4522 151.984 84.9968C152.021 92.6292 151.217 97.8786 148.787 104.332M161.339 63.79L151.984 58.8001L134.519 97.4715L148.787 104.332" stroke="black" stroke-width="10" stroke-linecap="round" stroke-linejoin="round"/>
</svg>

<svg width="192" height="192" viewBox="0 0 192 192" fill="none" xmlns="http://www.w3.org/2000/svg"><path d="M164.016 124.811c-10.844 22.239-19.737 31.096-40.543 40.542C72.327 181.57 17.439 146.641 21.181 84.892c5.433-45.7 49.275-69.858 89.194-61.126 18.53 6.694 22.273 20.416 20.583 29.94a60.417 60.417 0 0 0-5.795-1.312m38.853 72.417c-5.56-7.265-9.55-10.142-18.712-12.475m18.712 12.475c9.972-24.808 9.426-38.176-2.677-61.021m-16.035 48.546C127.757 133.629 104 134 86.049 113.584c-13.663-20.076-6.886-35.553-1.247-44.285m60.502 43.037c1.42-2.967 2.567-5.571 3.483-8.004M84.802 69.299c6.657-10.31 19.391-20.548 40.361-16.905M84.802 69.299c6.68 14.45 29.758 15.593 35.995 0 4.71-12.102 4.605-15.71 4.366-16.905m36.176 11.396c.279 10.175.959 16.06-3.118 26.82 0 0-5.198-4.158-6.237-5.613.037 7.632-.767 12.882-3.197 19.335m12.552-40.542-9.355-4.99-17.465 38.672 14.268 6.86" stroke="#000" stroke-width="10" stroke-linecap="round" stroke-linejoin="round"/></svg>
